docs/.vuepress/public/icon.svg

<svg width="433pt" height="433pt" viewBox="0 0 433 433" xmlns="http://www.w3.org/2000/svg"><path d="M134.73 0h248.15c0 23.37-.02 46.74.01 70.11.4 2.52-1.78 4.16-3.14 5.95-36.06-.13-72.12-.05-108.18-.03-6.84.07-13.69-.05-20.53-.03-1.33-4.97-2.88-9.99-5.66-14.36-5.05-6.33-11.7-11.03-18.07-15.91-8.53-5.62-17.15-11.19-26.4-15.57-8.75-3.54-17.38-7.68-26.76-9.22-1.47-.23-2.95.2-4.13 1.07-6.72 4.22-9.7 12.02-13.21 18.76-4.61 8.43-6.48 17.93-9.71 26.9-20.4 2.33-40.75 5.05-61.14 7.45-10.34 1.63-20.83.62-31.24.87 1.43-20.93 12.1-40.79 27.69-54.64C96.69 8.44 115.56 1.01 134.73 0zM52.34 357.05c35.36-.12 70.72-.01 106.07-.05h22.55c1.81 6.46 3.74 13.44 8.97 18.03 11.57 11.27 25.57 19.71 39.79 27.18 8.92 3.75 17.79 7.89 27.34 9.75 1.7.37 3.54.09 4.95-.98 6.7-4.22 9.67-12.01 13.17-18.74 4.62-8.43 6.48-17.94 9.72-26.91 20.7-2.47 41.4-4.95 62.1-7.44 10.02-1.54 20.19-.67 30.29-.88-1.46 21.16-12.33 41.21-28.2 55.09-14.41 12.78-33.35 20.13-52.55 20.9H49.12c0-23.03.02-46.07-.01-69.1.03-1.43.24-2.84.59-4.22.87-.89 1.76-1.76 2.64-2.63z" fill="#818181"/><path fill="#5b3c21" d="M271.57 76.03c36.06-.02 72.12-.1 108.18.03-73.9 93.56-147.55 187.3-221.34 280.94-35.35.04-70.71-.07-106.07.05-.88.87-1.77 1.74-2.64 2.63.27-3.9 3.42-6.43 5.56-9.36 72.1-91.44 144.24-182.84 216.31-274.29z"/></svg>

<?xml version="1.0" encoding="UTF-8" ?>
<!DOCTYPE svg PUBLIC "-//W3C//DTD SVG 1.1//EN" "http://www.w3.org/Graphics/SVG/1.1/DTD/svg11.dtd">
<svg width="433pt" height="433pt" viewBox="0 0 433 433" version="1.1" xmlns="http://www.w3.org/2000/svg">
<g id="#818181ff">
<path fill="#818181" opacity="1.00" d=" M 134.73 0.00 L 382.88 0.00 C 382.88 23.37 382.86 46.74 382.89 70.11 C 383.29 72.63 381.11 74.27 379.75 76.06 C 343.69 75.93 307.63 76.01 271.57 76.03 C 264.73 76.10 257.88 75.98 251.04 76.00 C 249.71 71.03 248.16 66.01 245.38 61.64 C 240.33 55.31 233.68 50.61 227.31 45.73 C 218.78 40.11 210.16 34.54 200.91 30.16 C 192.16 26.62 183.53 22.48 174.15 20.94 C 172.68 20.71 171.20 21.14 170.02 22.01 C 163.30 26.23 160.32 34.03 156.81 40.77 C 152.20 49.20 150.33 58.70 147.10 67.67 C 126.70 70.00 106.35 72.72 85.96 75.12 C 75.62 76.75 65.13 75.74 54.72 75.99 C 56.15 55.06 66.82 35.20 82.41 21.35 C 96.69 8.44 115.56 1.01 134.73 0.00 Z" />
<path fill="#818181" opacity="1.00" d=" M 52.34 357.05 C 87.70 356.93 123.06 357.04 158.41 357.00 C 165.93 357.00 173.44 357.00 180.96 357.00 C 182.77 363.46 184.70 370.44 189.93 375.03 C 201.50 386.30 215.50 394.74 229.72 402.21 C 238.64 405.96 247.51 410.10 257.06 411.96 C 258.76 412.33 260.60 412.05 262.01 410.98 C 268.71 406.76 271.68 398.97 275.18 392.24 C 279.80 383.81 281.66 374.30 284.90 365.33 C 305.60 362.86 326.30 360.38 347.00 357.89 C 357.02 356.35 367.19 357.22 377.29 357.01 C 375.83 378.17 364.96 398.22 349.09 412.10 C 334.68 424.88 315.74 432.23 296.54 433.00 L 49.12 433.00 C 49.12 409.97 49.14 386.93 49.11 363.90 C 49.14 362.47 49.35 361.06 49.70 359.68 C 50.57 358.79 51.46 357.92 52.34 357.05 Z" />
</g>
<g id="#5b3c21ff">
<path fill="#5b3c21" opacity="1.00" d=" M 271.57 76.03 C 307.63 76.01 343.69 75.93 379.75 76.06 C 305.85 169.62 232.20 263.36 158.41 357.00 C 123.06 357.04 87.70 356.93 52.34 357.05 C 51.46 357.92 50.57 358.79 49.70 359.68 C 49.97 355.78 53.12 353.25 55.26 350.32 C 127.36 258.88 199.50 167.48 271.57 76.03 Z" />
</g>
</svg>
